X: 655
T: Dui hua
%%abc-version 2.0
%%abcx-abcm2ps-target-version 5.9.1 (29 Sep 2008)
%%abc-creator hum2abc beta
%%abcx-conversion-date 2013/10/02 07:52:30
%%abc-edited-by Helmut Schaffrath
%%humdrum-veritas 3890813401
%%humdrum-veritas-data 468640479
%%continueall 1
%%barnumbers 0
L: 1/8
M: 4/4
K: G
d e d A d e d d [I:setbarnb 1]| 
A> A A> cd3e | 
c2c d A B A G | 
F2G AD4 | 
A> B A GF4 | 
A> F G AD4 | 
A> B A GF4 | 
A> F G AD4 | 
d e d A d e d d | 
A> A A B2<d2e | 
c2c> d A B A G | 
F F G AD4 |]  



